public/images/hashed/b2b102a76b7ad3f01419bf7c97528b8a.svg

<?xml version="1.0" encoding="UTF-8"?>
<svg width="80px" height="80px" viewBox="0 0 80 80" version="1.1" xmlns="http://www.w3.org/2000/svg" xmlns:xlink="http://www.w3.org/1999/xlink">
    <!-- Generator: Sketch 64 (93537) - https://sketch.com -->
    <title>Icon-Architecture/64/Arch_Amazon-Athena_64</title>
    <desc>Created with Sketch.</desc>
    <defs>
        <linearGradient x1="0%" y1="100%" x2="100%" y2="0%" id="linearGradient-1">
            <stop stop-color="#4D27A8" offset="0%"></stop>
            <stop stop-color="#A166FF" offset="100%"></stop>
        </linearGradient>
    </defs>
    <g id="Icon-Architecture/64/Arch_Amazon-Athena_64" stroke="none" stroke-width="1" fill="none" fill-rule="evenodd">
        <g id="Icon-Architecture-BG/64/Analytics" fill="url(#linearGradient-1)">
            <rect id="Rectangle" x="0" y="0" width="80" height="80"></rect>
        </g>
        <path d="M38.29505,27.2267312 C42.787319,27.2267312 45.2478437,28.2331825 45.6964751,28.7379193 C45.2478437,29.2426562 42.787319,30.2491074 38.29505,30.2491074 C33.8027811,30.2491074 31.3422564,29.2426562 30.893625,28.7379193 C31.3422564,28.2331825 33.8027811,27.2267312 38.29505,27.2267312 L38.29505,27.2267312 Z M37.7838882,35.2823712 C37.6191254,35.1977447 37.5029973,35.0294991 37.5029973,34.8300223 C37.5029973,34.5499487 37.7292981,34.3212556 38.0062188,34.3212556 C38.0866151,34.3212556 38.1600636,34.3444272 38.2285494,34.3796882 L37.7838882,35.2823712 Z M43.5674612,43.5908834 C43.4930201,43.6513309 43.322302,43.7681961 42.9709403,43.9092403 C42.6582879,44.0341652 42.2880677,44.1470006 41.8682202,44.2457316 C40.7525971,44.5076708 39.3808968,44.6517374 38.0052262,44.6517374 C34.9968155,44.6517374 32.9005556,44.0019265 32.4489466,43.5989431 L31.1159556,31.150783 C33.1596104,31.9869737 36.1700063,32.2640249 38.29505,32.2640249 C40.3843621,32.2640249 43.3292498,31.9950334 45.3719121,31.1910813 L44.5748967,36.6656121 C43.0731726,36.0994203 41.1992434,35.2773339 39.4235763,34.4129344 C39.2429327,33.786295 38.6801584,33.3248789 38.0062188,33.3248789 C37.1883598,33.3248789 36.5233532,34.0008837 36.5233532,34.8300223 C36.5233532,35.6611757 37.1883598,36.3361731 38.0062188,36.3361731 C38.1997655,36.3361731 38.3843793,36.2958747 38.5531123,36.2273675 C41.0344805,37.4524373 42.8835961,38.2382552 44.2751474,38.7228428 L43.5674612,43.5908834 Z M28.8718062,28.8467249 L30.4787403,43.8498003 C30.5918907,46.6344162 37.6995217,46.6666549 38.0052262,46.6666549 C39.5268012,46.6666549 41.0573091,46.5034466 42.3148665,46.2092686 C42.8299985,46.0883736 43.2964958,45.9453144 43.7004625,45.7831136 C44.8736534,45.3116229 45.4890327,44.6688642 45.5317122,43.8739793 L46.2006891,39.2759376 C46.6562683,39.3696313 47.0284735,39.4109371 47.3252452,39.4109371 C48.2592321,39.4109371 48.5053839,39.0281028 48.6751094,38.7641486 C48.853768,38.48609 48.9053804,38.1445615 48.8220064,37.8010181 C48.6314374,37.0111704 47.5168068,35.971473 46.7723963,35.3539008 L47.7133311,28.8850083 L47.7043982,28.8840008 C47.7083684,28.8346354 47.7242492,28.7882923 47.7242492,28.7379193 C47.7242492,25.9543109 41.7967568,25.2118138 38.29505,25.2118138 C34.7933433,25.2118138 28.8658509,25.9543109 28.8658509,28.7379193 C28.8658509,28.7751953 28.8787541,28.8084414 28.8807391,28.8457174 L28.8718062,28.8467249 Z M37.8355007,20.0596698 C46.4865427,20.0596698 53.5246954,27.2035597 53.5246954,35.98457 C53.5246954,44.7655803 46.4865427,51.9094701 37.8355007,51.9094701 C29.1834661,51.9094701 22.1453133,44.7655803 22.1453133,35.98457 C22.1453133,27.2035597 29.1834661,20.0596698 37.8355007,20.0596698 L37.8355007,20.0596698 Z M12.9850945,41.8348828 L12.9850945,43.8498003 L21.91802,43.8498003 L21.91802,43.7309201 C24.7735785,49.7494786 30.8261318,53.9243876 37.8355007,53.9243876 C47.5803298,53.9243876 55.50979,45.8768072 55.50979,35.98457 C55.50979,26.0923327 47.5803298,18.0447524 37.8355007,18.0447524 C30.253432,18.0447524 23.7909567,22.9248825 21.2857674,29.7453781 L12.9850945,29.7453781 L12.9850945,31.7602955 L20.6763434,31.7602955 C20.3666686,33.0568949 20.1850325,34.4018523 20.1701443,35.7901304 L11,35.7901304 L11,37.8050479 L20.2515331,37.8050479 C20.3914823,39.2044081 20.7061198,40.548358 21.1448257,41.8348828 L12.9850945,41.8348828 Z M67.0799136,66.035049 C65.8789314,67.2560889 63.7965672,67.2631412 62.5965775,66.046131 L51.9326496,55.220987 C53.6487638,53.9223727 55.1802643,52.3900279 56.4934043,50.6763406 L67.0918241,61.4853653 C67.688345,62.0918555 68.0168782,62.8998374 68.014902,63.7591997 C68.0139005,64.6205769 67.6823898,65.4275513 67.0799136,66.035049 L67.0799136,66.035049 Z M68.4972711,60.0628336 L57.6616325,49.0100039 C60.0635969,45.2562127 61.4650736,40.7851108 61.4650736,35.98457 C61.4650736,22.7586518 50.8646687,12 37.8355007,12 C28.4728022,12 19.9825528,17.6196048 16.2039254,26.316996 L18.0202869,27.1290077 C21.4812992,19.1630316 29.2588997,14.0149175 37.8355007,14.0149175 C49.7708816,14.0149175 59.4799791,23.8698788 59.4799791,35.98457 C59.4799791,48.0982537 49.7708816,57.9542225 37.8355007,57.9542225 C29.8623684,57.9542225 22.5572205,53.5244265 18.7686675,46.3936336 L17.0217843,47.3507194 C21.1557437,55.1343455 29.1318536,59.9691399 37.8355007,59.9691399 C42.3912926,59.9691399 46.6483279,58.6503765 50.2602074,56.3735197 L61.1941082,67.4716851 C62.1648195,68.4569797 63.4561235,69 64.8278238,69 C66.2074645,69 67.5067089,68.4529499 68.4813903,67.462618 C69.4580568,66.4773233 69.9980025,65.1635972 70,63.7622221 C70.0029653,62.3628619 69.4679823,61.0491357 68.4972711,60.0628336 L68.4972711,60.0628336 Z" id="Amazon-Athena_Icon_64_Squid" fill="#FFFFFF"></path>
    </g>
</svg>

<svg xmlns="http://www.w3.org/2000/svg" width="80" height="80"><defs><linearGradient id="a" x1="0%" x2="100%" y1="100%" y2="0%"><stop offset="0%" stop-color="#4D27A8"/><stop offset="100%" stop-color="#A166FF"/></linearGradient></defs><g fill="none" fill-rule="evenodd"><path fill="url(#a)" d="M0 0h80v80H0z"/><path fill="#FFF" d="M38.295 27.227c4.492 0 6.953 1.006 7.401 1.51-.448.506-2.909 1.512-7.4 1.512-4.493 0-6.954-1.006-7.402-1.511.448-.505 2.909-1.511 7.401-1.511Zm-.511 8.055a.509.509 0 0 1 .222-.96c.08 0 .154.022.223.058l-.445.902Zm5.783 8.309c-.074.06-.245.177-.596.318a7.845 7.845 0 0 1-1.103.337c-1.115.262-2.487.406-3.863.406-3.008 0-5.104-.65-5.556-1.053L31.116 31.15c2.044.836 5.054 1.113 7.18 1.113 2.088 0 5.033-.269 7.076-1.073l-.797 5.475c-1.502-.567-3.376-1.389-5.151-2.253a1.484 1.484 0 0 0-1.418-1.088c-.818 0-1.483.676-1.483 1.505 0 .831.665 1.506 1.483 1.506.194 0 .378-.04.547-.109 2.481 1.225 4.33 2.011 5.722 2.496l-.708 4.868ZM28.872 28.847l1.607 15.003c.113 2.784 7.22 2.817 7.526 2.817 1.522 0 3.052-.164 4.31-.458.515-.12.981-.264 1.385-.426 1.174-.471 1.789-1.114 1.832-1.909l.669-4.598c.455.094.827.135 1.124.135.934 0 1.18-.383 1.35-.647.179-.278.23-.62.147-.963-.19-.79-1.305-1.83-2.05-2.447l.941-6.469-.009-.001c.004-.05.02-.096.02-.146 0-2.784-5.927-3.526-9.429-3.526-3.502 0-9.43.742-9.43 3.526 0 .037.014.07.016.108h-.01Zm8.964-8.787c8.65 0 15.689 7.144 15.689 15.925 0 8.78-7.038 15.924-15.69 15.924s-15.69-7.143-15.69-15.924c0-8.781 7.038-15.925 15.69-15.925Zm-24.85 21.775v2.015h8.932v-.12c2.856 6.02 8.908 10.194 15.918 10.194 9.744 0 17.674-8.047 17.674-17.94 0-9.892-7.93-17.94-17.674-17.94-7.583 0-14.045 4.88-16.55 11.701h-8.3v2.015h7.69a18.148 18.148 0 0 0-.506 4.03H11v2.015h9.252c.14 1.4.454 2.743.893 4.03h-8.16Zm54.094 24.2c-1.201 1.221-3.283 1.228-4.483.011L51.933 55.221a23.996 23.996 0 0 0 4.56-4.545l10.599 10.81c.596.606.925 1.414.923 2.273a3.213 3.213 0 0 1-.935 2.276Zm1.417-5.972L57.662 49.01a24.094 24.094 0 0 0 3.803-13.025c0-13.226-10.6-23.985-23.63-23.985-9.362 0-17.852 5.62-21.631 14.317l1.816.812c3.461-7.966 11.239-13.114 19.816-13.114 11.935 0 21.644 9.855 21.644 21.97 0 12.113-9.71 21.97-21.644 21.97-7.974 0-15.279-4.43-19.067-11.561l-1.747.957c4.134 7.783 12.11 12.618 20.814 12.618a23.22 23.22 0 0 0 12.424-3.595l10.934 11.098A5.07 5.07 0 0 0 64.828 69c1.38 0 2.679-.547 3.653-1.537a5.231 5.231 0 0 0 1.519-3.7 5.224 5.224 0 0 0-1.503-3.7Z"/></g></svg>
